X: 19905
T: Jig For Spot
R: jig
M: 6/8
K: Dmajor
|:ag|fgf def|efe cde|d2F Bcd|BDD D2e|
fgf def|efg a2g|fed efe|d3 d:|
|:ec|BcB Bcd|cFF F2c|dcd def|ecA EAc|
BcB Bcd|B/c/de efg|fed efe|d3 d:|

